svg/color/sgr.svg

<svg viewBox="0 0 35 36" fill="none" xmlns="http://www.w3.org/2000/svg">
<g clip-path="url(#clip0_1488_170158)">
<path fill-rule="evenodd" clip-rule="evenodd" d="M3.93766 23.8263L34.9398 10.2301L34.9492 12.3773L3.93167 25.9801L3.93766 23.8263ZM31.0081 7.57753L31.0173 9.75243L0 23.3912L0.00599099 21.2091L10.0961 16.7724C7.67541 15.2809 5.75797 12.9325 5.93266 9.12429C6.03324 6.2415 7.39036 3.86053 9.85739 2.23929C11.9672 0.853292 14.8009 0.0898438 17.8374 0.0898438C21.0918 0.0898438 23.7391 0.82443 26.1377 2.41122C27.6191 3.39067 28.928 5.22574 28.928 5.22574L25.428 6.76474C25.428 6.76474 24.8393 6.08415 24.3051 5.67729C22.9004 4.60722 20.7405 3.75812 17.8374 3.75812C16.0262 3.75812 10.0888 4.15474 9.74387 9.26581C9.61491 10.915 10.0816 13.1336 14.6962 14.7499L31.0081 7.57753ZM22.9657 20.8376L26.9664 19.0761C28.9119 20.6986 30.3636 23.1764 30.1158 26.5427C29.8001 30.9477 25.7941 35.6895 17.7444 35.6895C12.7198 35.6895 8.26221 33.5369 5.82072 29.932L5.27523 29.1257L5.02392 28.735L8.48577 27.2137L8.7005 27.4868L9.08865 28.0308C10.8661 30.5257 14.1368 32.0153 17.8377 32.0153C21.3377 32.0153 25.6301 30.5167 26.2204 26.2944C26.4036 23.7065 25.2041 21.9484 22.9657 20.8376Z" fill="#134CED"/>
</g>
<defs>
<clipPath id="clip0_1488_170158">
<rect width="35" height="36" fill="white"/>
</clipPath>
</defs>
</svg>

<svg xmlns="http://www.w3.org/2000/svg" fill="none" viewBox="0 0 35 36"><g clip-path="url(#sgr_svg-a)"><path fill="#134CED" fill-rule="evenodd" d="M3.938 23.826 34.94 10.23l.01 2.147L3.931 25.98zm27.07-16.248.01 2.174L0 23.392l.006-2.183 10.09-4.437c-2.42-1.491-4.338-3.84-4.163-7.648.1-2.883 1.457-5.263 3.924-6.885C11.967.853 14.801.09 17.837.09c3.255 0 5.902.735 8.3 2.322 1.482.98 2.791 2.815 2.791 2.815l-3.5 1.539s-.589-.68-1.123-1.088c-1.405-1.07-3.564-1.919-6.468-1.919-1.81 0-7.748.397-8.093 5.508-.13 1.649.338 3.868 4.952 5.484zm-8.042 13.26 4-1.762c1.946 1.623 3.398 4.1 3.15 7.467-.316 4.405-4.322 9.147-12.372 9.147-5.024 0-9.482-2.153-11.923-5.758l-.546-.806-.251-.391 3.462-1.521.214.273.389.544c1.777 2.495 5.048 3.984 8.749 3.984 3.5 0 7.792-1.498 8.382-5.72.184-2.589-1.016-4.347-3.254-5.457" clip-rule="evenodd"/></g><defs><clipPath id="sgr_svg-a"><path fill="#fff" d="M0 0h35v36H0z"/></clipPath></defs></svg>
